resources/svg/pin.svg

<svg xmlns="http://www.w3.org/2000/svg" viewBox="0 0 15 15" fill="currentColor"><path d="M6 6.49606C6 5.66924 6.67183 4.99738 7.5 4.99738C8.32817 4.99738 9 5.66924 9 6.49606C9 7.3229 8.32816 7.99478 7.5 7.99478C6.67184 7.99478 6 7.3229 6 6.49606Z" fill="black"/><path fill-rule="evenodd" clip-rule="evenodd" d="M1 6.49606C1 2.90877 3.91117 0 7.5 0C11.0888 0 14 2.90877 14 6.49606C14 9.1701 12.6617 11.2886 11.2284 12.7209C10.5102 13.4387 9.75773 13.9953 9.11325 14.3751C8.79117 14.5649 8.49017 14.7141 8.22849 14.8174C7.98144 14.9149 7.72211 14.9909 7.5 14.9909C7.27789 14.9909 7.01856 14.9149 6.77151 14.8174C6.50983 14.7141 6.20883 14.5649 5.88675 14.3751C5.24227 13.9953 4.48984 13.4387 3.77156 12.7209C2.33829 11.2886 1 9.1701 1 6.49606ZM7.5 3.99738C6.12017 3.99738 5 5.11633 5 6.49606C5 7.87579 6.12016 8.99478 7.5 8.99478C8.87984 8.99478 10 7.87579 10 6.49606C10 5.11633 8.87983 3.99738 7.5 3.99738Z" fill="black"/></svg>

<svg xmlns="http://www.w3.org/2000/svg" viewBox="0 0 15 15" fill="currentColor"><path d="M6 6.496a1.5 1.5 0 013 0 1.5 1.5 0 01-3 0z" fill="currentColor"/><path fill-rule="evenodd" clip-rule="evenodd" d="M1 6.496A6.499 6.499 0 017.5 0C11.089 0 14 2.909 14 6.496c0 2.674-1.338 4.793-2.772 6.225a10.865 10.865 0 01-2.115 1.654c-.322.19-.623.34-.885.442-.247.098-.506.174-.728.174-.222 0-.481-.076-.728-.174a6.453 6.453 0 01-.885-.442 10.868 10.868 0 01-2.115-1.654C2.338 11.289 1 9.17 1 6.496zm6.5-2.499a2.5 2.5 0 00-2.5 2.5 2.5 2.5 0 005 0 2.5 2.5 0 00-2.5-2.5z" fill="currentColor"/></svg>
